Papirus-GTK/24x24/apps/smplayer.svg

<svg height="24" viewBox="0 0 48 48.000001" width="24" xmlns="http://www.w3.org/2000/svg"><path d="m38 24a14 14 0 0 1 -14 14 14 14 0 0 1 -14-14 14 14 0 0 1  14-14 14 14 0 0 1  14 14z" fill="#4d4d4d"/><path d="m24 4c-11.08 0-20 8.92-20 20 0 11.08 8.92 20 20 20 11.08 0 20-8.92 20-20 0-11.08-8.92-20-20-20zm0 3a6 6 0 0 1 6 6 6 6 0 0 1 -6 6 6 6 0 0 1 -6-6 6 6 0 0 1  6-6zm-11 11a6 6 0 0 1 6 6 6 6 0 0 1 -6 6 6 6 0 0 1 -6-6 6 6 0 0 1  6-6zm22 0a6 6 0 0 1 6 6 6 6 0 0 1 -6 6 6 6 0 0 1 -6-6 6 6 0 0 1  6-6zm-11 11a6 6 0 0 1 6 6 6 6 0 0 1 -6 6 6 6 0 0 1 -6-6 6 6 0 0 1  6-6z" fill="#ccc"/><path d="m23.366 20.9a1 1 0 0 1 -.366 1.366 1 1 0 0 1 -1.366-.366 1 1 0 0 1  .366-1.366 1 1 0 0 1  1.366.366z" fill="#4d4d4d"/><path d="m26.366 26.1a1 1 0 0 1 -.366 1.366 1 1 0 0 1 -1.366-.366 1 1 0 0 1  .366-1.366 1 1 0 0 1  1.366.366z" fill="#4d4d4d"/><path d="m27.098 23.3a1 1 0 0 1 -1.366-.366 1 1 0 0 1  .366-1.366 1 1 0 0 1  1.366.366 1 1 0 0 1 -.366 1.366z" fill="#4d4d4d"/><path d="m21.902 26.3a1 1 0 0 1 -1.366-.366 1 1 0 0 1  .366-1.366 1 1 0 0 1  1.366.366 1 1 0 0 1 -.366 1.366z" fill="#4d4d4d"/><path d="m24 4c-11.08 0-20 8.92-20 20 0 .168.0076.333.0117.5.2647-10.846 9.0763-19.5 19.988-19.5 10.9117 0 19.724 8.654 19.988 19.5.004-.167.012-.332.012-.5 0-11.08-8.92-20-20-20zm-5.9746 9.498a6 6 0 0 0 -.025.502 6 6 0 0 0  6 6 6 6 0 0 0  6-6 6 6 0 0 0 -.025-.498 6 6 0 0 1 -5.975 5.498 6 6 0 0 1 -5.975-5.502zm-11 11a6 6 0 0 0 -.025.502 6 6 0 0 0  6 6 6 6 0 0 0  6-6 6 6 0 0 0 -.025-.498 6 6 0 0 1 -5.975 5.498 6 6 0 0 1 -5.9746-5.502zm22 0a6 6 0 0 0 -.025.502 6 6 0 0 0  6 6 6 6 0 0 0  6-6 6 6 0 0 0 -.025-.498 6 6 0 0 1 -5.975 5.498 6 6 0 0 1 -5.975-5.502zm-11 11a6 6 0 0 0 -.025.502 6 6 0 0 0  6 6 6 6 0 0 0  6-6 6 6 0 0 0 -.025-.498 6 6 0 0 1 -5.975 5.498 6 6 0 0 1 -5.975-5.502z" fill="#fff" opacity=".2"/><path d="m24 6a6 6 0 0 0 -6 6 6 6 0 0 0  .02539.4981 6 6 0 0 1  5.975-5.498 6 6 0 0 1  5.975 5.502 6 6 0 0 0  .025-.502 6 6 0 0 0 -6-6zm-11 11a6 6 0 0 0 -6 6 6 6 0 0 0  .0254.498 6 6 0 0 1  5.9746-5.498 6 6 0 0 1  5.975 5.502 6 6 0 0 0  .025-.502 6 6 0 0 0 -6-6zm22 0a6 6 0 0 0 -6 6 6 6 0 0 0  .02539.4981 6 6 0 0 1  5.975-5.498 6 6 0 0 1  5.975 5.502 6 6 0 0 0  .025-.502 6 6 0 0 0 -6-6zm-30.988 6.5c-.0041.167-.0117.332-.0117.5 0 11.08 8.92 20 20 20 11.08 0 20-8.92 20-20 0-.1679-.0076-.3331-.01172-.5-.264 10.846-9.076 19.5-19.988 19.5-10.912 0-19.724-8.654-19.988-19.5zm19.988 4.5a6 6 0 0 0 -6 6 6 6 0 0 0  .02539.4981 6 6 0 0 1  5.975-5.498 6 6 0 0 1  5.975 5.502 6 6 0 0 0  .025-.502 6 6 0 0 0 -6-6z" opacity=".3"/></svg>

<?xml version="1.0" encoding="UTF-8" standalone="no"?>
<!-- Created with Inkscape (http://www.inkscape.org/) -->

<svg
   xmlns:dc="http://purl.org/dc/elements/1.1/"
   xmlns:cc="http://creativecommons.org/ns#"
   xmlns:rdf="http://www.w3.org/1999/02/22-rdf-syntax-ns#"
   xmlns:svg="http://www.w3.org/2000/svg"
   xmlns="http://www.w3.org/2000/svg"
   xmlns:sodipodi="http://sodipodi.sourceforge.net/DTD/sodipodi-0.dtd"
   xmlns:inkscape="http://www.inkscape.org/namespaces/inkscape"
   id="svg4559"
   height="24"
   viewBox="0 0 48 48.000001"
   width="24"
   version="1.1"
   inkscape:version="0.91 r13725"
   sodipodi:docname="smplayer.svg">
  <defs
     id="defs15" />
  <sodipodi:namedview
     pagecolor="#ffffff"
     bordercolor="#666666"
     borderopacity="1"
     objecttolerance="10"
     gridtolerance="10"
     guidetolerance="10"
     inkscape:pageopacity="0"
     inkscape:pageshadow="2"
     inkscape:window-width="1600"
     inkscape:window-height="843"
     id="namedview13"
     showgrid="false"
     inkscape:zoom="9.8333333"
     inkscape:cx="12"
     inkscape:cy="12"
     inkscape:window-x="0"
     inkscape:window-y="0"
     inkscape:window-maximized="1"
     inkscape:current-layer="svg4559" />
  <metadata
     id="metadata4564">
    <rdf:RDF>
      <cc:Work
         rdf:about="">
        <dc:format>image/svg+xml</dc:format>
        <dc:type
           rdf:resource="http://purl.org/dc/dcmitype/StillImage" />
        <dc:title />
      </cc:Work>
    </rdf:RDF>
  </metadata>
  <path
     style="fill:#4d4d4d"
     inkscape:connector-curvature="0"
     d="M 38,24 A 14,14 0 0 1 24,38 14,14 0 0 1 10,24 14,14 0 0 1 24,10 14,14 0 0 1 38,24 Z"
     id="path4706" />
  <path
     inkscape:connector-curvature="0"
     style="fill:#cccccc;fill-opacity:1"
     d="M 24,4 C 12.92,4 4,12.92 4,24 4,35.08 12.92,44 24,44 35.08,44 44,35.08 44,24 44,12.92 35.08,4 24,4 Z m 0,3 a 6,6 0 0 1 6,6 6,6 0 0 1 -6,6 6,6 0 0 1 -6,-6 6,6 0 0 1 6,-6 z M 13,18 a 6,6 0 0 1 6,6 6,6 0 0 1 -6,6 6,6 0 0 1 -6,-6 6,6 0 0 1 6,-6 z m 22,0 a 6,6 0 0 1 6,6 6,6 0 0 1 -6,6 6,6 0 0 1 -6,-6 6,6 0 0 1 6,-6 z M 24,29 a 6,6 0 0 1 6,6 6,6 0 0 1 -6,6 6,6 0 0 1 -6,-6 6,6 0 0 1 6,-6 z"
     id="rect4203-6-2" />
  <path
     style="fill:#4d4d4d"
     inkscape:connector-curvature="0"
     d="M 23.366,20.9 A 1,1 0 0 1 23,22.266 1,1 0 0 1 21.634,21.9 1,1 0 0 1 22,20.534 1,1 0 0 1 23.366,20.9 Z"
     id="path4709" />
  <path
     style="fill:#4d4d4d"
     inkscape:connector-curvature="0"
     d="M 26.366,26.1 A 1,1 0 0 1 26,27.466 1,1 0 0 1 24.634,27.1 1,1 0 0 1 25,25.734 1,1 0 0 1 26.366,26.1 Z"
     id="path4712" />
  <path
     style="fill:#4d4d4d"
     inkscape:connector-curvature="0"
     d="m 27.098,23.3 a 1,1 0 0 1 -1.366,-0.366 1,1 0 0 1 0.366,-1.366 1,1 0 0 1 1.366,0.366 1,1 0 0 1 -0.366,1.366 z"
     id="path4720" />
  <path
     style="fill:#4d4d4d"
     inkscape:connector-curvature="0"
     d="m 21.902,26.3 a 1,1 0 0 1 -1.366,-0.366 1,1 0 0 1 0.366,-1.366 1,1 0 0 1 1.366,0.366 1,1 0 0 1 -0.366,1.366 z"
     id="path4722" />
  <path
     style="opacity:0.2;fill:#ffffff"
     inkscape:connector-curvature="0"
     d="M 24,4 C 12.92,4 4,12.92 4,24 4,24.168 4.0076,24.333 4.0117,24.5 4.2764,13.654 13.088,5 23.9997,5 c 10.9117,0 19.724,8.654 19.988,19.5 0.004,-0.167 0.012,-0.332 0.012,-0.5 0,-11.08 -8.92,-20 -20,-20 z m -5.9746,9.498 a 6,6 0 0 0 -0.025,0.502 6,6 0 0 0 6,6 6,6 0 0 0 6,-6 6,6 0 0 0 -0.025,-0.498 6,6 0 0 1 -5.975,5.498 6,6 0 0 1 -5.975,-5.502 z m -11,11 A 6,6 0 0 0 7.0004,25 a 6,6 0 0 0 6,6 6,6 0 0 0 6,-6 6,6 0 0 0 -0.025,-0.498 A 6,6 0 0 1 13.0004,30 6,6 0 0 1 7.0258,24.498 Z m 22,0 a 6,6 0 0 0 -0.025,0.502 6,6 0 0 0 6,6 6,6 0 0 0 6,-6 6,6 0 0 0 -0.025,-0.498 6,6 0 0 1 -5.975,5.498 6,6 0 0 1 -5.975,-5.502 z m -11,11 a 6,6 0 0 0 -0.025,0.502 6,6 0 0 0 6,6 6,6 0 0 0 6,-6 6,6 0 0 0 -0.025,-0.498 6,6 0 0 1 -5.975,5.498 6,6 0 0 1 -5.975,-5.502 z"
     id="path4732" />
  <path
     style="opacity:0.3"
     inkscape:connector-curvature="0"
     d="m 24,6 a 6,6 0 0 0 -6,6 6,6 0 0 0 0.02539,0.4981 6,6 0 0 1 5.975,-5.498 6,6 0 0 1 5.975,5.502 6,6 0 0 0 0.025,-0.502 6,6 0 0 0 -6,-6 z M 13,17 A 6,6 0 0 0 7,23 6,6 0 0 0 7.0254,23.498 6,6 0 0 1 13,18 6,6 0 0 1 18.975,23.502 6,6 0 0 0 19,23 6,6 0 0 0 13,17 Z m 22,0 a 6,6 0 0 0 -6,6 6,6 0 0 0 0.02539,0.4981 6,6 0 0 1 5.975,-5.498 6,6 0 0 1 5.975,5.502 6,6 0 0 0 0.025,-0.502 6,6 0 0 0 -6,-6 z M 4.012,23.5 c -0.0041,0.167 -0.0117,0.332 -0.0117,0.5 0,11.08 8.92,20 20,20 11.08,0 20,-8.92 20,-20 0,-0.1679 -0.0076,-0.3331 -0.01172,-0.5 -0.264,10.846 -9.076,19.5 -19.988,19.5 -10.912,0 -19.724,-8.654 -19.988,-19.5 z M 24,28 a 6,6 0 0 0 -6,6 6,6 0 0 0 0.02539,0.4981 6,6 0 0 1 5.975,-5.498 6,6 0 0 1 5.975,5.502 6,6 0 0 0 0.025,-0.502 6,6 0 0 0 -6,-6 z"
     id="path4737" />
</svg>
